X:1
T: Red red rose
C:
R:Jig
Q:180
K:D
M:6/8
L:1/16
A2|:D2E2D2 E4F2|d4c2 B4A2|B4A2 B4d2|e6 d2e2f2|
D2E2D2 E4F2|d4c2 B4A2|B4A2 B4c2|d6-d4A2:|
|:d4f2 e4d2|B2c2d2 A4F2|A4A2 g4f2|f6 e2a2g2|
f4a2 f4d2|B2c2d2 A2G2F2|A4A2 B4c2|1d6-d4A2:|2d6-d4||
